desktop/resources/assets/open.svg

<svg width="16" height="16" viewBox="0 0 16 16" fill="none" xmlns="http://www.w3.org/2000/svg">
<path d="M4.49999 3C3.67157 3 3 3.67157 3 4.5V11.5C3 12.3284 3.67157 13 4.49999 13H11.5C12.3284 13 12.9999 12.3284 12.9999 11.5V9.26923C12.9999 8.99309 13.2238 8.76923 13.4999 8.76923C13.7761 8.76923 13.9999 8.99309 13.9999 9.26923V11.5C13.9999 12.8807 12.8807 14 11.5 14H4.49999C3.11928 14 2 12.8807 2 11.5V4.5C2 3.11929 3.11928 2 4.49999 2H6.73075C7.00689 2 7.23074 2.22386 7.23074 2.5C7.23074 2.77614 7.00689 3 6.73075 3H4.49999ZM8.76926 2.5C8.76926 2.22386 8.99311 2 9.26925 2H13.5C13.7761 2 14 2.22386 14 2.5V6.73077C14 7.00691 13.7761 7.23077 13.5 7.23077C13.2239 7.23077 13 7.00691 13 6.73077V3.70711L9.6228 7.08433C9.42754 7.27959 9.11096 7.27959 8.9157 7.08433C8.72044 6.88906 8.72044 6.57248 8.9157 6.37722L12.2929 3H9.26925C8.99311 3 8.76926 2.77614 8.76926 2.5Z" fill="#888"/>
</svg>

<svg xmlns="http://www.w3.org/2000/svg" width="16" height="16" fill="none"><path fill="#888" d="M4.5 3A1.5 1.5 0 0 0 3 4.5v7A1.5 1.5 0 0 0 4.5 13h7a1.5 1.5 0 0 0 1.5-1.5V9.27a.5.5 0 0 1 1 0v2.23a2.5 2.5 0 0 1-2.5 2.5h-7A2.5 2.5 0 0 1 2 11.5v-7A2.5 2.5 0 0 1 4.5 2h2.23a.5.5 0 0 1 0 1zm4.27-.5a.5.5 0 0 1 .5-.5h4.23a.5.5 0 0 1 .5.5v4.23a.5.5 0 0 1-1 0V3.708L9.623 7.084a.5.5 0 1 1-.707-.707L12.293 3H9.269a.5.5 0 0 1-.5-.5"/></svg>
